X:1
T:Norwich
T:Norwich
T:Day’s Psalter, 1563
T:Public Domain Courtesy of the Cyber Hymnal™
C:Day’s Psalter, 1563
Z:Public Domain
Z:Courtesy of the Cyber Hymnal™
%%score ( 1 2 ) ( 3 4 )
L:1/8
Q:1/4=110
M:4/4
K:G
V:1 treble 
V:2 treble 
V:3 bass 
V:4 bass 
V:1
 [B,G]2!mf! | [A,F]2 [CE]2 D2 [B,G]2 | [DB]2 A2 [B,G]2 [B,G]2 | [EA]2 [DB]2 [Cc]2 [DA]2 | %4
 [DB]6 [DB]2 | [DA]2 [DG]2 [DF]2 [DG]2 | [DE]2 [^CE]2 D2 D2 | [B,G]2 [EA]2 [DB]2 A2 | %8
 [B,G]6 [B,D]2 | [B,G]2 [EA]2 [^DB]2 [EG]2 | [Ec]2 c2 [^DB]2 [EG]2 | E2 [EF]2 [EG]2 [^DA]2 | %12
 [EG]6 [B,G]2 | [DB]2 [Ec]2 [Dd]2 [Fd]2 | e2 [Ge]2 [Fd]2 [DB]2 | [DA]2 [DB]2 [Ec]2 A2 | [B,G]6 |] %17
V:2
 x2 | x4 D2 x2 | x2 (DC) x4 | x8 | x8 | x8 | x4 D2 D2 | x6 (DC) | x8 | x8 | x2 (FE) x4 | E2 x6 | %12
 x8 | x8 | (EF) x6 | x6 (DC) | x6 |] %17
V:3
 [G,,D,]2 | D,2 (E,F,) [B,,G,]2 [E,G,]2 | [D,G,]2 [D,F,]2 [G,,G,]2 [E,G,]2 | %3
 [C,G,]2 [B,,G,]2 [A,,E,]2 [D,F,]2 | [G,,G,]6 G,2 | [F,A,]2 [G,B,]2 [D,A,]2 [B,,G,]2 | %6
 [G,,B,]2 (A,G,) [D,F,]2 [B,,G,]2 | [E,G,]2 [C,G,]2 [D,G,]2 [D,F,]2 | [G,,G,]6 G,2 | %9
 [E,G,]2 [C,E,]2 [B,,F,]2 [E,G,]2 | [A,,A,]2 (A,G,) [B,,F,]2 [E,G,]2 | %11
 [C,G,]2 [A,,C]2 [B,,B,]2 [B,,F,]2 | [E,G,]6 [E,G,]2 | [D,G,]2 [C,G,]2 [B,,G,]2 [A,,A,]2 | %14
 [G,,B,]2 [A,,^C]2 [D,D]2 [G,D]2 | F,2 [B,,G,]2 [A,,G,]2 [D,F,]2 | [G,,G,]6 |] %17
V:4
 x2 | D,2 A,,2 x4 | x8 | x8 | x6 G,2 | x8 | x2 A,,2 x4 | x8 | x6 G,2 | x8 | x2 A,,2 x4 | x8 | x8 | %13
 x8 | x8 | (D,C,) x6 | x6 |] %17

